X: 36007
T: Savage, The
R: hornpipe
M: 4/4
K: Gminor
(3FGA|:B2 B2 Bcde|fdfb fdBd|G2 G2 GABG|FDFB FDB,D|
EDEF GBAc|Bcde fgab|fdBd ecBA|1 B2 B2 B2 (3FGA:|2 B2 B2 B2 fe||
|:dfBf dfBf|cfAf cfAc|BdGc BdGB|AdFd AdFD|
EDEF GBAc|Bcde fgab|fdBd ecBA|1 B2 B2 B2 fe:|2 B2 B2 B2 (3FGA||

